logos/google-search-console.svg

<?xml version="1.0" encoding="UTF-8"?>
<svg width="256px" height="228px" viewBox="0 0 256 228" version="1.1" xmlns="http://www.w3.org/2000/svg" preserveAspectRatio="xMidYMid">
    <title>Google Search Console</title>
    <defs>
        <radialGradient cx="21.6597926%" cy="28.7075835%" fx="21.6597926%" fy="28.7075835%" r="82.8696858%" gradientTransform="translate(0.216598,0.287076),scale(0.740246,1.000000),rotate(36.502479),translate(-0.216598,-0.287076)" id="gscRadialGradient-1">
            <stop stop-color="#F1F2F2" offset="0%"></stop>
            <stop stop-color="#E6E7E8" offset="100%"></stop>
        </radialGradient>
    </defs>
    <g>
        <polygon fill="#737373" points="165.979466 0 90.0205339 0 71.0965092 19.0554415 71.0965092 37.9794661 90.0205339 37.9794661 90.0205339 19.0554415 165.979466 19.0554415 165.979466 37.9794661 184.903491 37.9794661 184.903491 19.0554415"></polygon>
        <polygon fill="#BFBFBF" points="90.020534 8.8817842e-15 90.020534 19.0554415 165.979466 19.0554415 165.979466 8.8817842e-15"></polygon>
        <path d="M36.4024641,37.979466 L0,74.3819301 L0,208.558521 C0,219.071868 8.54209446,227.482546 18.9240246,227.482546 L237.075975,227.482546 C247.589322,227.482546 256,218.940452 256,208.558521 L256,74.5133469 L219.466119,37.979466 L36.4024641,37.979466 Z" fill="url(#gscRadialGradient-1)"></path>
        <polygon fill="#FFFFFF" points="28.5174538 109.075975 227.613963 109.075975 227.613963 227.613963 28.5174538 227.613963"></polygon>
        <polygon fill="#E0E0E0" points="36.4024641 37.979466 0 74.3819301 0 109.075975 256 109.075975 256 74.5133469 219.466119 37.979466"></polygon>
        <polygon fill="#D1D1D1" points="42.710472 213.289528 128 213.289528 128 227.482546 42.710472 227.482546"></polygon>
        <path d="M28.5174538,86.9979466 C28.5174538,78.8501027 35.0882957,72.2792608 43.2361396,72.2792608 L212.76386,72.2792608 C220.911704,72.2792608 227.482546,78.8501027 227.482546,86.9979466 L227.482546,109.075975 L28.5174538,109.075975 L28.5174538,86.9979466 Z" fill="#4285F4"></path>
        <path d="M56.9034908,90.1519507 C56.9034908,94.0944559 53.7494867,97.24846 49.8069815,97.24846 C45.8644764,97.24846 42.7104723,94.0944559 42.7104723,90.1519507 C42.7104723,86.2094456 45.8644764,83.0554415 49.8069815,83.0554415 C53.7494867,83.0554415 56.9034908,86.2094456 56.9034908,90.1519507 M80.5585216,90.1519507 C80.5585216,94.0944559 77.4045175,97.24846 73.4620123,97.24846 C69.5195072,97.24846 66.3655031,94.0944559 66.3655031,90.1519507 C66.3655031,86.2094456 69.5195072,83.0554415 73.4620123,83.0554415 C77.4045175,83.0554415 80.5585216,86.2094456 80.5585216,90.1519507" fill="#E6E6E6"></path>
        <path d="M227.482546,165.190965 L197.650924,135.359343 L187.663244,166.2423 L146.924025,125.634497 L145.741273,188.320329 L160.854209,211.975359 C163.088296,211.581109 149.552361,227.482546 149.552361,227.482546 L227.482546,227.482546 L227.482546,165.190965 Z" fill="#BABABA"></path>
        <path d="M208.821355,164.008214 C208.821355,147.186858 198.965092,132.731006 184.903491,125.765914 L184.903491,165.716632 L166.110883,175.835729 L147.055441,165.716632 L147.055441,125.634497 C132.99384,132.599589 123.400411,147.186858 123.400411,163.876797 C123.400411,180.698152 133.125257,195.154004 147.186858,202.119097 L147.186858,227.482546 L185.034908,227.482546 L185.034908,202.119097 C198.965092,195.285421 208.821355,180.698152 208.821355,164.008214" fill="#4D4D4D"></path>
        <polygon fill="#D1D1D1" points="42.710472 123.268994 109.075975 123.268994 109.075975 199.096509 42.710472 199.096509"></polygon>
    </g>
</svg>

<?xml version="1.0" encoding="UTF-8"?>
<svg width="256" height="228" version="1.1" xmlns="http://www.w3.org/2000/svg" preserveAspectRatio="xMidYMid">
	<defs>
		<radialGradient cx="21.66%" cy="28.708%" fx="21.66%" fy="28.708%" r="82.87%" gradientTransform="matrix(.59503 .59486 -.44034 .80383 .214 -.073)" id="a">
			<stop stop-color="#F1F2F2" offset="0%"/>
			<stop stop-color="#E6E7E8" offset="100%"/>
		</radialGradient>
	</defs>
	<path fill="#737373" d="M165.98 0H90.02L71.098 19.055V37.98H90.02V19.055h75.958V37.98h18.924V19.055z"/>
	<path fill="#BFBFBF" d="M90.02 0v19.055h75.96V0z"/>
	<path d="M36.402 37.98 0 74.381v134.177c0 10.513 8.542 18.924 18.924 18.924h218.152c10.513 0 18.924-8.543 18.924-18.924V74.513L219.466 37.98H36.402Z" fill="url(#a)"/>
	<path fill="#FFF" d="M28.517 109.076h199.097v118.538H28.517z"/>
	<path fill="#E0E0E0" d="M36.402 37.98 0 74.381v34.694h256V74.513L219.466 37.98z"/>
	<path fill="#D1D1D1" d="M42.71 213.29H128v14.193H42.71z"/>
	<path d="M28.517 86.998c0-8.148 6.571-14.719 14.72-14.719h169.527c8.148 0 14.719 6.571 14.719 14.719v22.078H28.517V86.998Z" fill="#4285F4"/>
	<path d="M56.903 90.152a7.067 7.067 0 0 1-7.096 7.096 7.067 7.067 0 0 1-7.097-7.096 7.067 7.067 0 0 1 7.097-7.097 7.067 7.067 0 0 1 7.096 7.097m23.656 0a7.067 7.067 0 0 1-7.097 7.096 7.067 7.067 0 0 1-7.096-7.096 7.067 7.067 0 0 1 7.096-7.097 7.067 7.067 0 0 1 7.097 7.097" fill="#E6E6E6"/>
	<path d="m227.483 165.191-29.832-29.832-9.988 30.883-40.739-40.608-1.183 62.686 15.113 23.655c2.234-.394-11.302 15.508-11.302 15.508h77.93V165.19Z" fill="#BABABA"/>
	<path d="M208.821 164.008c0-16.821-9.856-31.277-23.918-38.242v39.95l-18.792 10.12-19.056-10.12v-40.082c-14.061 6.966-23.655 21.553-23.655 38.243 0 16.821 9.725 31.277 23.787 38.242v25.364h37.848v-25.364c13.93-6.834 23.786-21.42 23.786-38.11" fill="#4D4D4D"/>
	<path fill="#D1D1D1" d="M42.71 123.269h66.366v75.828H42.71z"/>
</svg>
